X:1
T:Lasso, lasso
T:Claudio Saracini
T:Source : Le secondo Musische per cantar e sonar---Venetia---A.Vincenti---1620. Editor : André Vierendeels (26/11/15).
T:Notes : Original clefs : C1, F4 Editorial accidentals above the staff Figures above the BC are notated in original print
T:Lasso, lasso, perche mi fuggi?
C:Claudio Saracini
%%score 1 2
L:1/8
Q:1/4=80
M:4/4
K:F
V:1 treble nm="Soprano" snm="S"
V:2 bass nm="BC" snm="BC"
V:1
 B6 c2 | A8 | d6 e2 | ^c8 | z dAB c2 c2 | G6 A2 | ^F8 | A4 AAAA | A4- AAAA | B4 A4 | c6 d2 | =B8 | %12
w: Las- *|so,|las- *|so,|per- che mi fug- gi?|Las- *|so,|s'hai del- la mor- te|mia _ tan- to de-|si- o,|las- *|so,|
 z AAB ^F2 F2 | A6 G2 | A8 | z EE^F ^C2 C2 | D6 E2 | ^C8 | A4 EEEE | F4 F4 ||[K:C] AA A4 Bc | %21
w: per- che mi fug- gi?|Las- *|so,|per- che mi fug- gi?|Las- *|so,|tu sei pur il cor|mi- o.|Cre- di tu per fug-|
 d4 d4 | BB B4 ^cd | e4 e4 | z EE^F ^G3 A | TB8 | A4 c4- | c2 BA G4 | z2 B2 ^F4 | d6 cB | A8 | %31
w: gi- re,|cre- di tu per fug-|gi- re,|cru- del far mi mo-|ri-|re, ah|_ non si puo|mo- rir,|ah non si|puo|
 z2 c2 ^G4 | d6 e2 | ^c8 | z E^FG A4- | A4 ^G4 | B6 ^c2 | ^G8 | z2 cc c4 | ^c6 AG | ^F8 | A6 ^CF | %42
w: mo- rir,|las- *|so|sen- za do- lo-|* re,|las- *|so,|è do- lor|_ non si|puo|chi non ha|
 E8 | D8 | d6 ^F_B | A8 | G8 |] %47
w: co-|re,|chi non ha|co-|re.|
V:2
 G,,4 D,4- | D,4 D,,4 |"^#" B,,4 A,,4- | A,,8 | D,4 F,,4 | _E,4 D,4- | D,8 | D,8 | ^C,8 | %9
"^b" G,,4 D,4 |"^-natural" C,4 G,4 | G,,8 | D,2 D,G,, D,4 | D,4 B,,4 | A,,8 | A,,2 A,,D, A,,4 | %16
"^#" B,,4 A,,4- | A,,8- | A,,8 | F,,8 ||[K:C] D,6 C,2 | B,,4 B,,4 | E,6 D,2 | ^C,4 C,4- | C,4 E,4 | %25
 E,,8 | A,,4 F,2 E,D, | C,4 B,,A,, G,,2 | G,,4 D,4 | G,2 F,E, D,4- |"^-natural" D,2 C,B,, A,,4- | %31
 A,,4 E,4 | _B,,4 A,,4- | A,,8 | ^C,8 | ^G,8 |"^#" B,,4 E,4- | E,8 | A,,6 B,,2 | ^C,8 | D,8 | %41
 A,,8- | A,,8 | D,8- | D,8- | D,8 | G,,8 |] %47

